X:1
T:Title
%%score 1 { ( 2 5 ) | ( 3 4 ) }
L:1/8
Q:1/4=84
M:6/8
K:F
V:1 treble nm="Akkordion"
V:2 treble nm="Grand Piano"
V:5 treble 
V:3 bass 
V:4 bass 
V:1
 G2 E c2 A | G2 C .E3 | F2 F E2 E | A2 A .G3 | G2 E c2 A | G2 E .G3 | E2 E A2 A | GFD .C3 | %8
w: J.~M.~Stillman * * *||||||||
 D2 G ^F2 F | G2 A .=B3 | =B2 B c2 A |[M:13/16] G-<G^FG-<G=F3/2 |[M:3/4] E2 G c2 G | A2 G c3 | %14
w: ||||||
 C2 D E2 A | G2 =B, C3 |[M:2/4][Q:1/4=90] C2 C2 | D2 C2 | F2 D2 | C4 | A2 A2 | G2 F2 | E2 D2 | D4 | %24
w: ||||||||||
 C2 C2 | D2 C2 | F2 D2 | C4 | A2 A2 | G2 F2 | D2 E2 | F4 | C2 C2 | D2 C2 | F2 D2 | C4 | A2 A2 | %37
w: |||||||||||||
 G2 F2 | E2 D2 | D4 | C2 C2 | D2 C2 | F2 D2 | C4 | A2 A2 | G2 F2 | D2 E2 | F4 | %48
w: |||||||||||
[M:6/8][Q:1/4=84] G2 E c2 A | G2 C .E3 | F2 F E2 E | A2 A .G3 | G2 E c2 A | G2 E .G3 | E2 E A2 A | %55
w: |||||||
 GFD .C3 | D2 G ^F2 F | G2 A .=B3 | =B2 B c2 A |[M:13/16] G-<G^FG-<G=F3/2 |[M:3/4] E2 G c2 G | %61
w: ||||||
 A2 G c3 | C2 D E2 A |[M:7/4] G2 =B, C3 z2 z2 z4 |] %64
w: |||
V:2
 [G,CE]EE [A,CF]FF | [G,CE]EE [G,CE]EE | [=B,DF]FF [CE]EE | [CFA]AA [CEG]GG | [G,CE]EE [A,CE]EE | %5
 [G,CE]EE [=B,DG]GG | [CE]EE [A,CF]FE | [G,=B,F]FF .[G,CE]3 | z GG z AA | %9
 z GG[K:bass] z[K:treble] ^FF | z GG[K:bass] z[K:treble] AA | %11
[M:13/16][K:bass] z G[K:treble]^F z G=F3/2 |[M:3/4] [G,CE]E E[G,CE] EE | [A,CF]F E[G,CE] [CE][CE] | %14
 [F,CF][CF] [CF][G,CE] [CE][A,C_E] | [G,CE][CE] [=B,DF] [G,CE]3 |[M:2/4] [A,C]2 [A,C]2 | %17
 [B,D]2 [A,C]2 | [A,F]2 [B,D]2 | [A,C]2 [A,C]2 | [CA]2 [CA]2 | [B,G]2 [A,F]2 | %22
 [CE]2[K:bass] [B,D]2 | [B,D]4 | [A,C]2 [A,C]2 | [B,D]2 [A,C]2 | [A,F]2 [B,D]2 | [A,C]4 | %28
 [CA]2 [CA]2 | [CG]2 [CF]2 | D2 E2 | [A,F]4 | [A,C]2 [A,C]2 | [B,D]2 [A,C]2 | [A,F]2 [B,D]2 | %35
 [A,C]2 [A,C]2 | [CA]2 [CA]2 | [B,G]2 [A,F]2 | [CE]2[K:bass] [B,D]2 | [B,D]4 | [A,C]2 [A,C]2 | %41
 [B,D]2 [A,C]2 | [A,F]2 [B,D]2 | [A,C]4 | [CA]2 [CA]2 | [CG]2 [CF]2 | D2 E2 | [A,F]4 | %48
[M:6/8] [G,CE]EE [A,CF]FF | [G,CE]EE [G,CE]EE | [=B,DF]FF [CE]EE | [CFA]AA [CEG]GG | %52
 [G,CE]EE [A,CE]EE | [G,CE]EE [=B,DG]GG | [CE]EE [A,CF]FE | [G,=B,F]FF .[G,CE]3 | z GG z AA | %57
 z GG[K:bass] z[K:treble] ^FF | z GG[K:bass] z[K:treble] AA | %59
[M:13/16][K:bass] z G[K:treble]^F z G=F3/2 |[M:3/4] [G,CE]E E[G,CE] EE | [A,CF]F E[G,CE] [CE][CE] | %62
 [F,CF][CF] [CF][G,CE] [CE][A,C_E] |[M:7/4] [G,CE][CE][=B,DF] [G,CE]3 z2 z2 z4 |] %64
V:3
 z [G,C][G,C] z [A,C][A,C] | z [G,C][G,C] z [G,C][^F,C] | z [=B,D][B,D] z CC | %3
 z[K:treble] [CF][CF][K:bass] z [CE][CE] | z [G,C][G,C] z [A,C][A,C] | z [G,C][G,C] z [=B,D][B,D] | %6
 z CC z [A,C][A,C] | z [G,=B,][G,B,] .[C,,C,]3 | z [=B,D][B,D] z[K:treble] [C^F][CF] | %9
 z [=B,E][B,E] z [B,_E][B,E] | z [=B,E][B,E] z [CE][CE] |[M:13/16] z [=B,D][A,D] z [B,D][B,D]3/2 | %12
[M:3/4] z [G,C] .[G,C]2 [G,C][G,C] | z [A,C] .[G,C]2 G,G, | z F, .F,2 G,^F,, | z G, G, [C,,C,]3 | %16
[M:2/4] [F,,F,]2 [F,,F,]2 | [F,,F,]2 [F,,F,]2 | [F,,F,]2 [F,,F,]2 | [F,,F,]2 [F,,F,]2 | %20
 [F,,F,]2 [F,,F,]2 | [F,,F,]2 [F,,F,]2 | [B,,F,]2 [B,,F,]2 | [B,,F,]2 z2 | [F,,F,]2 [F,,F,]2 | %25
 [F,,F,]2 [F,,F,]2 | [F,,F,]2 [F,,F,]2 | [F,,F,]2 [F,,F,]2 | [F,,F,]2 [F,,F,]2 | %29
 [G,,E,]2 [A,,F,]2 | [B,,F,B,]2 [C,B,]2 | [F,,C,]4 | [F,,F,]2 [F,,F,]2 | [F,,F,]2 [F,,F,]2 | %34
 [F,,F,]2 [F,,F,]2 | [F,,F,]2 [F,,F,]2 | [F,,F,]2 [F,,F,]2 | [F,,F,]2 [F,,F,]2 | %38
 [B,,F,]2 [B,,F,]2 | [B,,F,]2 z2 | [F,,F,]2 [F,,F,]2 | [F,,F,]2 [F,,F,]2 | [F,,F,]2 [F,,F,]2 | %43
 [F,,F,]2 [F,,F,]2 | [F,,F,]2 [F,,F,]2 | [G,,E,]2 [A,,F,]2 | [B,,F,B,]2 [C,B,]2 | [F,,C,]4 | %48
[M:6/8] z [G,C][G,C] z [A,C][A,C] | z [G,C][G,C] z [G,C][^F,C] | z [=B,D][B,D] z CC | %51
 z[K:treble] [CF][CF][K:bass] z [CE][CE] | z [G,C][G,C] z [A,C][A,C] | z [G,C][G,C] z [=B,D][B,D] | %54
 z CC z [A,C][A,C] | z [G,=B,][G,B,] .[C,,C,]3 | z [=B,D][B,D] z[K:treble] [C^F][CF] | %57
 z [=B,E][B,E] z [B,_E][B,E] | z [=B,E][B,E] z [CE][CE] |[M:13/16] z [=B,D][A,D] z [B,D][B,D]3/2 | %60
[M:3/4] z [G,C] .[G,C]2 [G,C][G,C] | z [A,C] .[G,C]2 G,G, | z F, .F,2 G,^F,, | %63
[M:7/4] z G,G, [C,,C,]3 z2 z2 z4 |] %64
V:4
 [C,,C,]3 [C,,C,]3 | [C,,C,]3 [C,,C,]3 | [G,,,_A,,]3 [A,,,=A,,]3 | %3
 [F,,,F,,]3[K:treble][K:bass] [C,,C,]3 | [C,,C,]3 [A,,,A,,]3 | [C,,C,]3 [G,,,G,,]3 | %6
 [A,,,A,,]3 [F,,,F,,]3 | [G,,,G,,]3 z3 | G,,3 _E,,3[K:treble] | E,,3 =B,,,3 | E,,3 C,,3 | %11
[M:13/16] D,,/-D,,/-D,,-<D,,G,,/-G,,/-G,,/-G,,-<G,, |[M:3/4] [C,,C,]3 [C,,C,]3 | %13
 [C,,C,]3 [C,,C,]3 | A,,3 .G,,3 | G,,4 z2 |[M:2/4] x4 | x4 | x4 | x4 | x4 | x4 | x4 | x4 | x4 | %25
 x4 | x4 | x4 | x4 | x4 | x4 | x4 | x4 | x4 | x4 | x4 | x4 | x4 | x4 | x4 | x4 | x4 | x4 | x4 | %44
 x4 | x4 | x4 | x4 |[M:6/8] [C,,C,]3 [C,,C,]3 | [C,,C,]3 [C,,C,]3 | [G,,,_A,,]3 [A,,,=A,,]3 | %51
 [F,,,F,,]3[K:treble][K:bass] [C,,C,]3 | [C,,C,]3 [A,,,A,,]3 | [C,,C,]3 [G,,,G,,]3 | %54
 [A,,,A,,]3 [F,,,F,,]3 | [G,,,G,,]3 z3 | G,,3 _E,,3[K:treble] | E,,3 =B,,,3 | E,,3 C,,3 | %59
[M:13/16] D,,/-D,,/-D,,-<D,,G,,/-G,,/-G,,/-G,,-<G,, |[M:3/4] [C,,C,]3 [C,,C,]3 | %61
 [C,,C,]3 [C,,C,]3 | A,,3 .G,,3 |[M:7/4] G,,4 z2 z2 z2 z4 |] %64
V:5
 x6 | x6 | x6 | x6 | x6 | x6 | x6 | x6 | G,3 _E,3 | E,3[K:bass] =B,,3[K:treble] | %10
 E,3[K:bass] C,3[K:treble] |[M:13/16][K:bass] D,/-D,/-D,-<D,[K:treble]G,/-G,/-G,/-G,-<G, | %12
[M:3/4] x6 | x6 | x6 | x6 |[M:2/4] x4 | x4 | x4 | x4 | x4 | x4 | x2[K:bass] x2 | z2 [B,,F,]2 | x4 | %25
 x4 | x4 | x4 | x4 | x4 | x4 | x4 | x4 | x4 | x4 | x4 | x4 | x4 | x2[K:bass] x2 | z2 [B,,F,]2 | %40
 x4 | x4 | x4 | x4 | x4 | x4 | x4 | x4 |[M:6/8] x6 | x6 | x6 | x6 | x6 | x6 | x6 | x6 | G,3 _E,3 | %57
 E,3[K:bass] =B,,3[K:treble] | E,3[K:bass] C,3[K:treble] | %59
[M:13/16][K:bass] D,/-D,/-D,-<D,[K:treble]G,/-G,/-G,/-G,-<G, |[M:3/4] x6 | x6 | x6 |[M:7/4] x14 |] %64

